X:95
T:95. Praise Ballad Two-Hand (3rds CW) — rolled LH + sustained RH
T:Emotional hymn ballad — RH holds, LH arpeggiates
C:Full 7-mode cycle
M:4/4
L:1/4
Q:1/4=68
%%score {V1 V2}
V:V1 clef=treble
V:V2 clef=bass
K:C
[V:V1] "C" [cegc']4 | "Em" [egbe']4 | "G" [gbd'g']4 | "B°" [Bdfb]4 | "Dm" [dfad']4 | "F" [fac'f']4 | "Am" [ac'e'a']4 | "C" [cegc']4 |]
[V:V2] "_8"C, E, G, z | "_8"E, G, B, z | "_8"G, B, D z | "_8"B, D F z | "_8"D, F, A, z | "_8"F, A, C z | "_8"A, C E z | "_8"C, E, G, z |]

